X:381
T:Johnnie Sullivan's
R:Reel
B:Traditional Celtic Fiddle Music of Cape Breton- Dunlay/Reich (?)
S:SF Scottish Fiddlers Handout
Z:Transcription, chords:Mike Long
M:C|
L:1/8
K:D
e|\
"Em"BE ~E2 {Bd}B2 AB|"D"dBAd FDDc|\
"Em"BE ~E2 {Bd}"G"B2 AB|"D"dAFA "Em"BEE:|\
b|\
"Em"ge ~e2 {ef}e2 dB|"D"defg agfa|
"Em"ge ~e2 {ef}"G"e2 dB|"D"AdFA "Em"BE Eb|\
"Em"ge ~e2 {ef}e2 dB|"D"defg agfd|\
"G"g2 fd egfe|"D"dBAd "Em"BEE|]
